X:1
T:Title
L:1/8
M:4/4
K:F
V:1 treble nm="Grand Piano"
V:1
 z4 z2[Q:1/4=100] A,F | F4 F>E- ED | F2 D4 A,G | G4 G>F- FE | G2 F4 A,A | A4 A>A- AB | B2 A4 GG | %7
 G3 ^F- F E2 F | GA A4 GF |[M:3/4] D6 |[M:1/4] FF |[M:4/4] F4 F>G- GA | A2 E4 EC | E4 E>F- FG | %14
 G2 D4 DD | D3 D- D C2 B, | E2 E4 ED | ^C3 E- E G2 B | B2 A4 A,A | A4 A A2 B | B2 A4 DB | %21
 B4 B>c- cd | d2 A4 _AA | _A4 A>G- GA | _A2 G4 FF | F4 F>G- GA | B2 A4 A,F | F4 F>E- ED | %28
 F2 D4 A,G | G4 G>F- FE | G2 F4 A,A | A4 A>A- AB | B2 A4 GG | G3 ^F- F E2 F | GA A4 GF | %35
[M:3/4] D6 |] %36

